src/assets/fileExtensionIcons/svg/web.svg

<svg class="svg-icon" style="width: 1em;height: 1em;vertical-align: middle;fill: currentColor;overflow: hidden;" viewBox="0 0 1024 1024" version="1.1" xmlns="http://www.w3.org/2000/svg"><path d="M952.888889 281.6V910.222222c0 62.862222-50.915556 113.777778-113.777778 113.777778H156.444444c-62.862222 0-113.777778-50.915556-113.777777-113.777778V113.777778c0-62.862222 50.915556-113.777778 113.777777-113.777778h514.844445L952.888889 281.6z" fill="#58C5C2" /><path d="M511.146667 294.656l0.711111 0.142222a246.044444 246.044444 0 0 1 0 491.292445 17.92 17.92 0 0 1-5.688889 0.284444h-0.995556l-7.395555 0.113778a246.044444 246.044444 0 1 1 8.391111-491.946667 17.237333 17.237333 0 0 1 4.977778 0.113778z m-98.986667 355.271111l-92.501333 0.028445a209.180444 209.180444 0 0 0 144.896 96.938666 334.961778 334.961778 0 0 1-52.394667-96.938666z m263.736889 0.028445H592.497778a337.92 337.92 0 0 1-50.062222 94.776888 209.351111 209.351111 0 0 0 133.461333-94.776888z m-122.737778 0h-101.603555a298.069333 298.069333 0 0 0 51.2 85.248c21.902222-26.026667 38.684444-54.897778 50.403555-85.248z m-155.534222-159.288889h-102.968889A209.578667 209.578667 0 0 0 288.711111 540.444444c0 25.486222 4.551111 49.92 12.913778 72.533334h100.181333a338.773333 338.773333 0 0 1-4.181333-122.311111z m171.832889 0.028444h-134.4a301.511111 301.511111 0 0 0 4.721778 122.282667h125.013333c9.813333-40.078222 11.377778-81.720889 4.664889-122.282667z m131.413333 0h-93.980444a342.186667 342.186667 0 0 1-4.152889 122.282667h91.192889A208.64 208.64 0 0 0 706.844444 540.444444c0-17.152-2.076444-33.820444-5.973333-49.777777z m-236.288-156.728889l-0.711111 0.142222A209.351111 209.351111 0 0 0 307.484444 453.688889h97.735112a334.705778 334.705778 0 0 1 59.335111-119.694222z m38.200889 11.719111l-3.868444 4.579556a298.012444 298.012444 0 0 0-55.239112 103.452444h117.248a301.397333 301.397333 0 0 0-58.140444-108.032z m39.651556-9.528889l4.295111 5.831112a338.062222 338.062222 0 0 1 52.622222 111.701333h88.689778a209.464889 209.464889 0 0 0-145.607111-117.532445z" fill="#FFFFFF" /><path d="M676.664889 167.822222V0l281.6 281.6h-167.822222c-62.862222 0-113.777778-50.915556-113.777778-113.777778" fill="#2B9592" /></svg>

<?xml version="1.0" encoding="utf-8"?>
<!-- Generator: Adobe Illustrator 28.3.0, SVG Export Plug-In . SVG Version: 6.00 Build 0)  -->
<svg version="1.1" id="Layer_1" xmlns="http://www.w3.org/2000/svg" xmlns:xlink="http://www.w3.org/1999/xlink" x="0px" y="0px"
	 viewBox="0 0 1024 1024" style="enable-background:new 0 0 1024 1024;" xml:space="preserve">
<style type="text/css">
	.st0{fill:#DBC73A;}
	.st1{fill:#FFFFFF;}
	.st2{fill:#A09030;}
</style>
<path class="st0" d="M952.9,281.6v628.6c0,62.9-50.9,113.8-113.8,113.8H156.4c-62.9,0-113.8-50.9-113.8-113.8V113.8
	C42.7,50.9,93.6,0,156.4,0h514.8L952.9,281.6z"/>
<path class="st1" d="M511.1,294.7l0.7,0.1c135.7,7.7,239.4,124,231.7,259.6C736.4,679.3,636.7,779,511.9,786.1
	c-1.9,0.4-3.8,0.5-5.7,0.3h-1l-7.4,0.1c-135.9,0-246-110.2-246-246.1s110.2-246,246.1-246c2.8,0,5.6,0,8.3,0.1
	C507.8,294.3,509.5,294.4,511.1,294.7z M412.2,649.9l-92.5,0c31.9,51.9,84.8,87.3,144.9,96.9C441.9,717.7,424.2,684.9,412.2,649.9
	L412.2,649.9z M675.9,650h-83.4c-11.5,34.1-28.4,66-50.1,94.8C597.9,732.6,646.1,698.4,675.9,650L675.9,650z M553.2,650H451.6
	c12.2,31.1,29.5,59.9,51.2,85.2C524.7,709.2,541.4,680.3,553.2,650z M397.6,490.7h-103c-4,16.3-6,33-5.9,49.8
	c0,25.5,4.6,49.9,12.9,72.5h100.2C393,572.8,391.6,531.4,397.6,490.7L397.6,490.7z M569.5,490.7H435.1c-6.8,40.7-5.2,82.3,4.7,122.3
	h125C574.6,572.9,576.2,531.3,569.5,490.7L569.5,490.7z M700.9,490.7h-94c6,40.7,4.6,82.1-4.2,122.3h91.2
	c8.6-23.2,12.9-47.8,12.9-72.5C706.8,523.3,704.8,506.6,700.9,490.7L700.9,490.7z M464.6,334l-0.7,0.1
	c-68.8,11.3-127.4,56.2-156.4,119.6h97.7C416.8,410.2,436.9,369.5,464.6,334L464.6,334z M502.8,345.7l-3.9,4.6
	c-25.1,30.5-43.9,65.6-55.2,103.5h117.2C549.2,414.1,529.4,377.3,502.8,345.7z M542.4,336.2l4.3,5.8c24.2,33.7,42.1,71.6,52.6,111.7
	H688C660.7,393.8,606.7,350.3,542.4,336.2L542.4,336.2z"/>
<path class="st2" d="M671.3,167.8V0l281.6,281.6H785.1C722.2,281.6,671.3,230.7,671.3,167.8"/>
</svg>
